src/app/client/src/assets/images/sbt-left-flower.svg

<?xml version="1.0" encoding="UTF-8"?>
<svg width="332px" height="358px" viewBox="0 0 332 358" version="1.1" xmlns="http://www.w3.org/2000/svg" xmlns:xlink="http://www.w3.org/1999/xlink">
    <title>2232FB37-1E86-4D7A-98D5-F9E89D22DF9B</title>
    <g id="Illustration-&amp;-colour-palette-" stroke="none" stroke-width="1" fill="none" fill-rule="evenodd" fill-opacity="0.5">
        <g id="Textbooks" transform="translate(106.000000, -390.000000)" fill="#F6A344">
            <g id="Group-8" transform="translate(-106.000000, 390.000000)">
                <path d="M118.918045,0.564535521 C154.339379,5.57509002 108.755811,52.1143659 108.755811,52.1143659 C108.755811,52.1143659 185.339755,-2.23575328 230.549812,15.5417727 C275.757394,33.3168228 187.673287,114.572323 187.673287,114.572323 C187.673287,114.572323 287.217863,85.2828923 327.147644,127.129789 C367.077425,168.976685 101.348714,205.62258 101.348714,205.62258 C101.348714,205.62258 148.828363,288.592959 141.567958,311.1744 C141.567958,311.1744 127.106556,361.690251 56.4047156,265.925614 C56.4047156,265.925614 57.4676522,364.523693 19.8774293,357.393721 C-17.71032,350.261277 10.076548,243.873629 10.076548,243.873629 L2.56785415,83.5788451 L2.66395147,83.4746638 C5.78661141,80.0950646 84.2002875,-4.34581014 118.918045,0.564535521 Z M185.066826,37.6429976 L78.104636,142.528307 L77.8957176,143.177194 C72.4179048,160.682299 83.0348258,169.5 109.307095,169.5 C135.085318,169.5 176.196991,161.104755 232.667135,144.317206 L232.667135,144.317206 L236.143681,143.278911 L235.856319,142.321089 L234.115849,142.84208 C176.838582,159.948371 135.227065,168.5 109.307095,168.5 L109.307095,168.5 L108.533441,168.497459 C83.4175642,168.331435 73.6662583,160.0296 78.8533181,143.465566 L78.8533181,143.465566 L78.979,143.071 L185.766967,38.3570024 L185.066826,37.6429976 Z" id="Combined-Shape"></path>
            </g>
        </g>
    </g>
</svg>

<svg xmlns="http://www.w3.org/2000/svg" width="332" height="358" xmlns:v="https://vecta.io/nano"><path d="M118.918.565c35.42 5.01-10.162 51.55-10.162 51.55S185.34-2.236 230.55 15.542s-42.877 99.03-42.877 99.03 99.545-29.29 139.474 12.557-225.8 78.493-225.8 78.493 47.48 82.97 40.22 105.552c0 0-14.46 50.516-85.163-45.25 0 0 1.063 98.598-36.527 91.468s-9.8-113.52-9.8-113.52L2.568 83.58l.096-.104C5.787 80.095 84.2-4.346 118.918.565zm66.15 37.078L78.105 142.528l-.21.65c-5.478 17.505 5.14 26.323 31.41 26.323 25.778 0 66.9-8.395 123.36-25.183h0l3.477-1.038-.287-.958-1.74.52c-57.277 17.106-98.89 25.658-124.81 25.658h0l-.774-.003c-25.116-.166-34.867-8.468-29.68-25.032h0l.126-.395L185.767 38.357l-.7-.714z" fill="#f6a344" fill-rule="evenodd" fill-opacity=".5"/></svg>
